assets/images/client-logo/svd.svg

<?xml version="1.0" encoding="UTF-8" standalone="no"?>
<!-- Generator: Adobe Illustrator 16.0.0, SVG Export Plug-In . SVG Version: 6.00 Build 0)  -->

<svg
   xmlns:dc="http://purl.org/dc/elements/1.1/"
   xmlns:cc="http://creativecommons.org/ns#"
   xmlns:rdf="http://www.w3.org/1999/02/22-rdf-syntax-ns#"
   xmlns:svg="http://www.w3.org/2000/svg"
   xmlns="http://www.w3.org/2000/svg"
   xmlns:sodipodi="http://sodipodi.sourceforge.net/DTD/sodipodi-0.dtd"
   xmlns:inkscape="http://www.inkscape.org/namespaces/inkscape"
   version="1.1"
   id="Capa_1"
   x="0px"
   y="0px"
   width="115.244"
   height="30.999889"
   viewBox="0 0 115.244 30.999889"
   enable-background="new 0 0 540 194"
   xml:space="preserve"
   inkscape:version="0.91 r13725"
   sodipodi:docname="svd-siglas.svg"><metadata
     id="metadata21"><rdf:RDF><cc:Work
         rdf:about=""><dc:format>image/svg+xml</dc:format><dc:type
           rdf:resource="http://purl.org/dc/dcmitype/StillImage" /><dc:title></dc:title></cc:Work></rdf:RDF></metadata><defs
     id="defs19" /><sodipodi:namedview
     pagecolor="#ffffff"
     bordercolor="#666666"
     borderopacity="1"
     objecttolerance="10"
     gridtolerance="10"
     guidetolerance="10"
     inkscape:pageopacity="0"
     inkscape:pageshadow="2"
     inkscape:window-width="1855"
     inkscape:window-height="1056"
     id="namedview17"
     showgrid="false"
     fit-margin-top="0"
     fit-margin-left="0"
     fit-margin-right="0"
     fit-margin-bottom="0"
     inkscape:zoom="0.54444444"
     inkscape:cx="-267.51217"
     inkscape:cy="13.41994"
     inkscape:window-x="65"
     inkscape:window-y="24"
     inkscape:window-maximized="1"
     inkscape:current-layer="Capa_1" /><line
     stroke-miterlimit="10"
     x1="79.318047"
     y1="0"
     x2="79.318047"
     y2="30.967278"
     id="line3"
     style="fill:none;stroke:#1e120d;stroke-width:0.23803219;stroke-miterlimit:10" /><g
     id="g5"
     transform="matrix(0.23803219,0,0,0.23803219,-6.8729415,-7.0940696)"><path
       d="m 77.775,30.021 c 9.789,0 18.265,2.156 25.416,6.456 7.152,4.308 12.719,10.067 16.717,17.289 L 102.127,67.231 C 95.553,57.618 87.439,52.805 77.775,52.805 c -4.51,0 -8.279,1.051 -11.305,3.135 -3.033,2.091 -4.542,5.104 -4.542,9.019 0,3.292 1.121,5.919 3.381,7.882 2.248,1.96 6.083,4.15 11.497,6.55 l 14.497,6.266 c 10.694,4.688 18.618,9.844 23.775,15.48 5.151,5.631 7.729,12.687 7.729,21.17 0,11.393 -4.187,20.507 -12.567,27.342 -8.38,6.838 -19.07,10.252 -32.078,10.252 -10.823,0 -20.522,-2.489 -29.091,-7.497 -8.565,-4.997 -15.296,-11.733 -20.197,-20.223 l 17.979,-13.289 c 8.891,12.154 19.324,18.224 31.309,18.224 5.667,0 10.11,-1.232 13.332,-3.696 3.22,-2.47 4.833,-5.86 4.833,-10.162 0,-2.526 -0.741,-4.782 -2.221,-6.741 -1.481,-1.96 -3.158,-3.447 -5.029,-4.461 -1.861,-1.01 -4.856,-2.466 -8.976,-4.373 L 66.375,101.61 C 56.44,97.181 48.81,92.117 43.472,86.424 38.122,80.724 35.45,73.763 35.45,65.528 c 0,-10.629 3.987,-19.204 11.979,-25.726 7.987,-6.523 18.105,-9.781 30.346,-9.781 z"
       id="path7"
       inkscape:connector-curvature="0" /></g><g
     id="g9"
     transform="matrix(0.23803219,0,0,0.23803219,-6.8729415,-7.0940696)"><path
       d="m 296.925,30.021 29.375,0 -56.82,129.879 -8.7,0 -57.014,-129.879 29.574,0 31.889,77.315 31.696,-77.315 z"
       id="path11"
       inkscape:connector-curvature="0" /></g><path
     d="m 98.682429,0.05189443 c 4.907511,0 8.894321,1.40748497 11.961841,4.22007297 3.06561,2.814493 4.59973,6.5344596 4.59973,11.1599006 0,4.564982 -1.54126,8.300659 -4.62401,11.207746 -3.08085,2.905659 -7.06028,4.360274 -11.937561,4.360274 l -8.14379,0 0,-30.94799357 8.14379,0 z m -0.0455,5.72157997 -1.88712,0 0,19.5041196 1.88712,0 c 3.066571,0 5.536151,-0.895953 7.407561,-2.695239 1.86927,-1.797143 2.80521,-4.180083 2.80521,-7.150249 0,-3.000871 -0.92785,-5.360485 -2.7826,-7.0795526 -1.85641,-1.719545 -4.3329,-2.579079 -7.430171,-2.579079 z"
     id="path13"
     inkscape:connector-curvature="0" /><line
     stroke-miterlimit="10"
     x1="32.876759"
     y1="0"
     x2="32.876759"
     y2="30.967278"
     id="line15"
     style="fill:none;stroke:#1e120d;stroke-width:0.23803219;stroke-miterlimit:10" /></svg>

<?xml version="1.0" standalone="no"?>
<!DOCTYPE svg PUBLIC "-//W3C//DTD SVG 1.0//EN" "http://www.w3.org/TR/2001/REC-SVG-20010904/DTD/svg10.dtd">
<svg xmlns="http://www.w3.org/2000/svg" xmlns:xlink="http://www.w3.org/1999/xlink" id="body_1" width="138" height="37">

<g transform="matrix(1.1935527 0 0 1.1935527 0.22511151 -0)">
    <path d="M79.31805 0L79.31805 30.967278" stroke="#1E120D" stroke-width="0.23803219" fill="none" />
	<g transform="matrix(0.23803219 0 0 0.23803219 -6.8729415 -7.0940695)">
        <path d="M77.775 30.021C 87.564 30.021 96.04 32.177 103.191 36.477C 110.343 40.785 115.91 46.544003 119.908005 53.766L119.908005 53.766L102.127 67.231C 95.553 57.618 87.439 52.805 77.775 52.805C 73.265 52.805 69.496 53.856 66.47 55.94C 63.437 58.031 61.928 61.044 61.928 64.959C 61.928 68.251 63.049 70.878 65.309 72.841C 67.557 74.801 71.392 76.991005 76.806 79.39101L76.806 79.39101L91.303 85.657005C 101.997 90.34501 109.921005 95.50101 115.078 101.13701C 120.229004 106.768005 122.80701 113.824005 122.80701 122.30701C 122.80701 133.70001 118.62001 142.81401 110.240005 149.649C 101.86001 156.487 91.170006 159.901 78.162 159.901C 67.339005 159.901 57.640003 157.412 49.071003 152.404C 40.506004 147.40701 33.775 140.671 28.874002 132.181L28.874002 132.181L46.853004 118.892C 55.744003 131.046 66.177 137.116 78.162 137.116C 83.829 137.116 88.272 135.884 91.494 133.42C 94.714005 130.95 96.327 127.56 96.327 123.257996C 96.327 120.731995 95.586006 118.476 94.106 116.517C 92.625 114.557 90.948006 113.07 89.077 112.056C 87.216 111.046 84.221 109.59 80.101006 107.683L80.101006 107.683L66.375 101.61C 56.44 97.181 48.81 92.117 43.472 86.424C 38.122 80.724 35.45 73.763 35.45 65.528C 35.45 54.899002 39.437 46.323997 47.429 39.802002C 55.416 33.279003 65.534 30.021002 77.775 30.021002L77.775 30.021002L77.775 30.021z" stroke="none" fill="#000000" fill-rule="nonzero" />
	</g>
	<g transform="matrix(0.23803219 0 0 0.23803219 -6.8729415 -7.0940695)">
        <path d="M296.925 30.021L326.3 30.021L269.47998 159.9L260.77997 159.9L203.76596 30.020996L233.33997 30.020996L265.22897 107.336L296.925 30.020996L296.925 30.021z" stroke="none" fill="#000000" fill-rule="nonzero" />
	</g>
    <path d="M98.68243 0.05189443C 103.589935 0.05189443 107.57675 1.4593794 110.644264 4.2719674C 113.70988 7.08646 115.243996 10.806427 115.243996 15.431868C 115.243996 19.99685 113.702736 23.732527 110.61999 26.639614C 107.53914 29.545273 103.55971 30.999887 98.68243 30.999887L98.68243 30.999887L90.538635 30.999887L90.538635 0.051893234L98.68243 0.051893234L98.68243 0.05189443zM98.636925 5.7734747L96.7498 5.7734747L96.7498 25.277596L98.636925 25.277596C 101.7035 25.277596 104.17307 24.381643 106.04449 22.582355C 107.91376 20.785213 108.8497 18.402273 108.8497 15.432106C 108.8497 12.431235 107.92185 10.071621 106.0671 8.352553C 104.21069 6.6330085 101.7342 5.7734747 98.63693 5.7734747z" stroke="none" fill="#000000" fill-rule="nonzero" />
    <path d="M32.87676 0L32.87676 30.967278" stroke="#1E120D" stroke-width="0.23803219" fill="none" />
</g>
</svg>
